src/lib/packages/icons/src/assets/filled/user-edit.svg

<svg width="24" height="24" viewBox="0 0 24 24" fill="none" xmlns="http://www.w3.org/2000/svg">
<path d="M6.00903 6.5C6.00903 4.294 7.80303 2.5 10.009 2.5C12.215 2.5 14.009 4.294 14.009 6.5C14.009 8.706 12.215 10.5 10.009 10.5C7.80303 10.5 6.00903 8.706 6.00903 6.5ZM16.057 14.1801C16.057 14.0681 15.9571 13.9689 15.9301 13.9399C15.0601 13.0799 13.79 12.5 12 12.5H8C3.94 12.5 2.5 15.47 2.5 18.02C2.5 20.3 3.71 21.5 6 21.5H11.2C11.28 21.5 11.36 21.47 11.41 21.41C11.46 21.36 11.5 21.2749 11.5 21.1949V19.5C11.5 19.1 11.6599 18.7199 11.9399 18.4399L15.97 14.39C16.02 14.34 16.057 14.2601 16.057 14.1801ZM13 19.501V22H15.499L20.038 17.481L17.519 14.962L13 19.501ZM21.708 14.412L20.588 13.292C20.198 12.902 19.568 12.902 19.178 13.292L18.218 14.262L20.7371 16.781L21.707 15.821C22.097 15.432 22.097 14.802 21.708 14.412Z" fill="currentColor"/>
</svg>

<svg xmlns="http://www.w3.org/2000/svg" width="24" height="24" fill="none"><path fill="currentColor" d="M6.009 6.5c0-2.206 1.794-4 4-4s4 1.794 4 4-1.794 4-4 4-4-1.794-4-4Zm10.048 7.68c0-.112-.1-.211-.127-.24-.87-.86-2.14-1.44-3.93-1.44H8c-4.06 0-5.5 2.97-5.5 5.52 0 2.28 1.21 3.48 3.5 3.48h5.2c.08 0 .16-.03.21-.09.05-.05.09-.135.09-.215V19.5c0-.4.16-.78.44-1.06l4.03-4.05a.31.31 0 0 0 .087-.21ZM13 19.501V22h2.499l4.539-4.519-2.519-2.519L13 19.501Zm8.708-5.089-1.12-1.12a.996.996 0 0 0-1.41 0l-.96.97 2.52 2.519.969-.96a.996.996 0 0 0 .001-1.409Z"/></svg>
